Sources/FrostedUI/Resources/Icons.xcassets/telephone32.imageset/telephone-32.svg

<svg width="32" height="32" viewBox="0 0 32 32" fill="none" xmlns="http://www.w3.org/2000/svg" data-fui-icon="true">
  <path
    d="M19.75 2C20.9926 2 22 3.00736 22 4.25V8.47949C21.9999 9.57892 21.2047 10.5181 20.1201 10.6992L15.9307 11.3965C15.6713 12.8725 15.5 14.4356 15.5 16C15.5 17.5638 15.6724 19.126 15.9316 20.6016L20.1201 21.3008C21.2047 21.4819 21.9999 22.4211 22 23.5205V27.75C22 28.9926 20.9926 30 19.75 30H15.25C15.2083 30 15.1677 29.9948 15.1279 29.9883C13.9635 29.9151 12.8433 29.2894 12.3213 28.1367C11.3943 26.0896 10 22.0092 10 16C10 9.99085 11.3943 5.91035 12.3213 3.86328C12.8433 2.71062 13.9635 2.08493 15.1279 2.01172C15.1677 2.00518 15.2083 2 15.25 2H19.75ZM15.2773 3.50293C14.5492 3.53 13.9516 3.90138 13.6885 4.48242C12.8385 6.35939 11.5 10.2294 11.5 16C11.5 21.7706 12.8385 25.6406 13.6885 27.5176C13.9516 28.0986 14.5492 28.47 15.2773 28.4971L15.2998 28.5H19.75C20.1382 28.5 20.4575 28.2051 20.4961 27.8271L20.5 27.75V23.5205C20.4999 23.1541 20.2351 22.8418 19.874 22.7812L15.1641 21.9961C14.8547 21.9445 14.61 21.7054 14.5508 21.3975C14.2264 19.7061 14 17.8638 14 16C14 14.1359 14.2263 12.2932 14.5508 10.6016C14.61 10.2935 14.8546 10.0544 15.1641 10.0029L19.874 9.21875C20.1899 9.16578 20.4325 8.92031 20.4883 8.61426L20.5 8.47949V4.25C20.5 3.83579 20.1642 3.5 19.75 3.5H15.2998C15.2924 3.50049 15.2848 3.50265 15.2773 3.50293Z"
    fill="currentColor"
  />
</svg>

<svg xmlns="http://www.w3.org/2000/svg" width="32" height="32" fill="none" data-fui-icon="true" viewBox="0 0 32 32"><path fill="currentColor" d="M19.75 2A2.25 2.25 0 0 1 22 4.25v4.23c0 1.099-.795 2.038-1.88 2.22l-4.19.697c-.259 1.476-.43 3.039-.43 4.603s.172 3.126.432 4.602l4.188.699A2.25 2.25 0 0 1 22 23.52v4.229A2.25 2.25 0 0 1 19.75 30h-4.5a1 1 0 0 1-.122-.012c-1.165-.073-2.285-.699-2.807-1.851C11.394 26.09 10 22.009 10 16s1.394-10.09 2.321-12.137c.522-1.152 1.643-1.778 2.807-1.851A1 1 0 0 1 15.25 2zm-4.473 1.503c-.728.027-1.325.398-1.588.98C12.839 6.358 11.5 10.228 11.5 16s1.338 9.64 2.188 11.518c.264.58.861.952 1.59.98l.022.002h4.45a.75.75 0 0 0 .746-.673l.004-.077v-4.23a.75.75 0 0 0-.626-.739l-4.71-.785a.75.75 0 0 1-.613-.598C14.226 19.706 14 17.864 14 16s.226-3.707.55-5.398a.75.75 0 0 1 .614-.6l4.71-.783a.75.75 0 0 0 .614-.605l.012-.135V4.25a.75.75 0 0 0-.75-.75H15.3q-.011.002-.023.003"/></svg>
